src/svg/uf091-trophy.svg

<!-- Generated by IcoMoon.io -->
<svg version="1.1" xmlns="http://www.w3.org/2000/svg" width="30" height="32" viewBox="0 0 30 32">
<path d="M8.179 15.768c-0.75-1.643-1.321-3.821-1.321-6.625h-4.571v1.714c0 1.75 2.375 4.179 5.893 4.911zM27.429 10.857v-1.714h-4.571c0 2.804-0.571 4.982-1.321 6.625 3.518-0.732 5.893-3.161 5.893-4.911zM29.714 8.571v2.286c0 3.393-4.107 7.143-9.679 7.411-0.714 0.911-1.375 1.446-1.696 1.696-0.946 0.857-1.196 1.75-1.196 2.893s0.571 2.286 2.286 2.286 3.429 1.143 3.429 2.857v1.143c0 0.321-0.25 0.571-0.571 0.571h-14.857c-0.321 0-0.571-0.25-0.571-0.571v-1.143c0-1.714 1.714-2.857 3.429-2.857s2.286-1.143 2.286-2.286-0.25-2.036-1.196-2.893c-0.321-0.25-0.982-0.786-1.696-1.696-5.571-0.268-9.679-4.018-9.679-7.411v-2.286c0-0.946 0.768-1.714 1.714-1.714h5.143v-1.714c0-1.571 1.286-2.857 2.857-2.857h10.286c1.571 0 2.857 1.286 2.857 2.857v1.714h5.143c0.946 0 1.714 0.768 1.714 1.714z"></path>
</svg>

<svg xmlns="http://www.w3.org/2000/svg" width="30" height="32"><path d="M8.179 15.768c-.75-1.643-1.321-3.821-1.321-6.625H2.287v1.714c0 1.75 2.375 4.179 5.893 4.911zm19.25-4.911V9.143h-4.571c0 2.804-.571 4.982-1.321 6.625 3.518-.732 5.893-3.161 5.893-4.911zm2.285-2.286v2.286c0 3.393-4.107 7.143-9.679 7.411a9.61 9.61 0 0 1-1.696 1.696c-.946.857-1.196 1.75-1.196 2.893s.571 2.286 2.286 2.286 3.429 1.143 3.429 2.857v1.143c0 .321-.25.571-.571.571H7.43a.564.564 0 0 1-.571-.571V28c0-1.714 1.714-2.857 3.429-2.857s2.286-1.143 2.286-2.286-.25-2.036-1.196-2.893a9.646 9.646 0 0 1-1.696-1.696C4.111 18 .003 14.25.003 10.857V8.571c0-.946.768-1.714 1.714-1.714H6.86V5.143a2.866 2.866 0 0 1 2.857-2.857h10.286a2.866 2.866 0 0 1 2.857 2.857v1.714h5.143c.946 0 1.714.768 1.714 1.714z"/></svg>
